public/avatar/shoe/8.svg

<svg xmlns:xlink="http://www.w3.org/1999/xlink" height="38.3" width="36.05" xmlns="http://www.w3.org/2000/svg"><use height="15.8" transform="translate(9.1 11.95)" width="22.75" xlink:href="#a"/><defs><use height="15.8" width="22.75" xlink:href="#b" id="a"/><g id="b"><path d="m7.65-6.3-2.9.85L.8-5.6l-.2-.05-2.05-.6q2.55-1.4 5.7-1.05 1.8.15 3.4 1" fill="#600" fill-rule="evenodd" transform="translate(11.4 7.85)"/><path d="m.8-5.6 3.95.15 2.9-.85 1.4 3q-1.6.85-2.95 2.5L6-.65 5.65.2l-.2.75Q5.2 2.35 5.3 3.8l-3.2.9-3.65.7q-4.9.6-8.4-.7l-.55-.3-.25-.35q-.55-.95 1.1-2.95L-8.8.05l5.45-5.1 1.9-1.2 2.05.6.1.1.1-.05m-8.05 7.85 1.6-2.3L-3.3-2.4l2.6-2.1L.7-5.55-.7-4.5l-2.6 2.1-2.35 2.35-1.6 2.3" fill="#f39" fill-rule="evenodd" transform="translate(11.4 7.85)"/><path d="m.6-5.65.2.05-.1.05-.1-.1" fill="#69c" fill-rule="evenodd" transform="translate(11.4 7.85)"/><path d="m-10.75 4.05.25.35.55.3q3.5 1.3 8.4.7l3.65-.7 3.2-.9q-.1-1.45.15-2.85l.2-.75L6-.65l.1-.15q1.35-1.65 2.95-2.5l1.7 3.55q.2 1.9-.05 2.3l-.1.15Q8.75 4.95 2.2 6.6q-7.25 1.75-12.05 0l-.55-.3q-.35-.35-.35-2.25" fill="#fff" fill-rule="evenodd" transform="translate(11.4 7.85)"/><path d="M7.65-6.3q-1.6-.85-3.4-1-3.15-.35-5.7 1.05l-1.9 1.2L-8.8.05l-.85 1.05q-1.65 2-1.1 2.95 0 1.9.35 2.25l.55.3q4.8 1.75 12.05 0 6.55-1.65 8.4-3.9l.1-.15q.25-.4.05-2.3L9.05-3.3l-1.4-3" fill="none" stroke="#000" stroke-linecap="round" stroke-linejoin="round" transform="translate(11.4 7.85)"/><path d="m.8-5.6-.1.05L-.7-4.5l-2.6 2.1-2.35 2.35-1.6 2.3" fill="none" stroke="#333" stroke-linecap="round" stroke-linejoin="round" transform="translate(11.4 7.85)"/><path d="m-7.15-1.1-1.2-.1-.7.3q-.35.25-.35.7l.3.7m4.55-3.85-1.4-.15q-.45 0-.7.3-.35.25-.35.7l.3.7m3.9-3.75h-.45l-.7.3-.3.7.3.7" fill="none" stroke="#000" stroke-linecap="round" stroke-linejoin="round" transform="translate(11.4 7.85)"/><path d="M-5.2-.65h-.05q1.6.5 3 1.85.3.25.3.7l-.25.7q-.3.3-.7.3l-.75-.25q-1-1-2.2-1.4L-8.1.85q-.45 0-.7-.3l-.3-.7q0-.45.35-.7.25-.3.7-.3l2.85.5M2.85-3.2l.3.7-.25.7q-.3.3-.7.3-.45 0-.75-.25Q.4-2.8-.85-3.2H-.9l-2.05-.3q-.4 0-.7-.3l-.3-.7.3-.7.7-.3 2.65.4q1.7.5 3.15 1.9M.15-1.1l.3.7L.2.3q-.3.3-.7.3l-.75-.25Q-2.3-.65-3.5-1.1l-2.2-.35q-.45 0-.7-.3l-.3-.7q0-.45.35-.7.25-.3.7-.3L-2.9-3h.05q1.65.55 3 1.9" fill="#fff" fill-rule="evenodd" transform="translate(11.4 7.85)"/></g></defs></svg>

<?xml version="1.0" encoding="UTF-8" standalone="no"?>
<svg xmlns:xlink="http://www.w3.org/1999/xlink" height="38.3px" width="36.05px" xmlns="http://www.w3.org/2000/svg">
  <g transform="matrix(1.0, 0.0, 0.0, 1.0, 23.8, 14.85)">
    <use height="15.8" transform="matrix(1.0, 0.0, 0.0, 1.0, -14.7, -2.9)" width="22.75" xlink:href="#sprite0"/>
  </g>
  <defs>
    <g id="sprite0" transform="matrix(1.0, 0.0, 0.0, 1.0, 11.4, 7.85)">
      <use height="15.8" transform="matrix(1.0, 0.0, 0.0, 1.0, -11.4, -7.85)" width="22.75" xlink:href="#shape0"/>
    </g>
    <g id="shape0" transform="matrix(1.0, 0.0, 0.0, 1.0, 11.4, 7.85)">
      <path d="M7.65 -6.3 L4.75 -5.45 0.8 -5.6 0.6 -5.65 -1.45 -6.25 Q1.1 -7.65 4.25 -7.3 6.05 -7.15 7.65 -6.3" fill="#660000" fill-rule="evenodd" stroke="none"/>
      <path d="M0.8 -5.6 L4.75 -5.45 7.65 -6.3 9.05 -3.3 Q7.45 -2.45 6.1 -0.8 L6.0 -0.65 5.65 0.2 5.45 0.95 Q5.2 2.35 5.3 3.8 L2.1 4.7 -1.55 5.4 Q-6.45 6.0 -9.95 4.7 L-10.5 4.4 -10.75 4.05 Q-11.3 3.1 -9.65 1.1 L-8.8 0.05 -3.35 -5.05 -1.45 -6.25 0.6 -5.65 0.7 -5.55 0.8 -5.6 M-7.25 2.25 L-5.65 -0.05 -3.3 -2.4 -0.7 -4.5 0.7 -5.55 -0.7 -4.5 -3.3 -2.4 -5.65 -0.05 -7.25 2.25" fill="#ff3399" fill-rule="evenodd" stroke="none"/>
      <path d="M0.6 -5.65 L0.8 -5.6 0.7 -5.55 0.6 -5.65" fill="#6699cc" fill-rule="evenodd" stroke="none"/>
      <path d="M-10.75 4.05 L-10.5 4.4 -9.95 4.7 Q-6.45 6.0 -1.55 5.4 L2.1 4.7 5.3 3.8 Q5.2 2.35 5.45 0.95 L5.65 0.2 6.0 -0.65 6.1 -0.8 Q7.45 -2.45 9.05 -3.3 L10.75 0.25 Q10.95 2.15 10.7 2.55 L10.6 2.7 Q8.75 4.95 2.2 6.6 -5.05 8.35 -9.85 6.6 L-10.4 6.3 Q-10.75 5.95 -10.75 4.05" fill="#ffffff" fill-rule="evenodd" stroke="none"/>
      <path d="M7.65 -6.3 Q6.05 -7.15 4.25 -7.3 1.1 -7.65 -1.45 -6.25 L-3.35 -5.05 -8.8 0.05 -9.65 1.1 Q-11.3 3.1 -10.75 4.05 -10.75 5.95 -10.4 6.3 L-9.85 6.6 Q-5.05 8.35 2.2 6.6 8.75 4.95 10.6 2.7 L10.7 2.55 Q10.95 2.15 10.75 0.25 L9.05 -3.3 7.65 -6.3" fill="none" stroke="#000000" stroke-linecap="round" stroke-linejoin="round" stroke-width="1.0"/>
      <path d="M0.8 -5.6 L0.7 -5.55 -0.7 -4.5 -3.3 -2.4 -5.65 -0.05 -7.25 2.25" fill="none" stroke="#333333" stroke-linecap="round" stroke-linejoin="round" stroke-width="1.0"/>
      <path d="M-7.15 -1.1 L-8.35 -1.2 -9.05 -0.9 Q-9.4 -0.65 -9.4 -0.2 L-9.1 0.5 M-4.55 -3.35 L-5.95 -3.5 Q-6.4 -3.5 -6.65 -3.2 -7.0 -2.95 -7.0 -2.5 L-6.7 -1.8 M-2.8 -5.55 L-3.25 -5.55 -3.95 -5.25 -4.25 -4.55 -3.95 -3.85" fill="none" stroke="#000000" stroke-linecap="round" stroke-linejoin="round" stroke-width="1.0"/>
      <path d="M-5.2 -0.65 L-5.25 -0.65 Q-3.65 -0.15 -2.25 1.2 -1.95 1.45 -1.95 1.9 L-2.2 2.6 Q-2.5 2.9 -2.9 2.9 L-3.65 2.65 Q-4.65 1.65 -5.85 1.25 L-8.1 0.85 Q-8.55 0.85 -8.8 0.55 L-9.1 -0.15 Q-9.1 -0.6 -8.75 -0.85 -8.5 -1.15 -8.05 -1.15 L-5.2 -0.65 M2.85 -3.2 L3.15 -2.5 2.9 -1.8 Q2.6 -1.5 2.2 -1.5 1.75 -1.5 1.45 -1.75 0.4 -2.8 -0.85 -3.2 L-0.9 -3.2 -2.95 -3.5 Q-3.35 -3.5 -3.65 -3.8 L-3.95 -4.5 -3.65 -5.2 -2.95 -5.5 -0.3 -5.1 Q1.4 -4.6 2.85 -3.2 M0.15 -1.1 L0.45 -0.4 0.2 0.3 Q-0.1 0.6 -0.5 0.6 L-1.25 0.35 Q-2.3 -0.65 -3.5 -1.1 L-5.7 -1.45 Q-6.15 -1.45 -6.4 -1.75 L-6.7 -2.45 Q-6.7 -2.9 -6.35 -3.15 -6.1 -3.45 -5.65 -3.45 L-2.9 -3.0 -2.85 -3.0 Q-1.2 -2.45 0.15 -1.1" fill="#ffffff" fill-rule="evenodd" stroke="none"/>
    </g>
  </defs>
</svg>
